X: 0219
T: Ladies of Dingwall, The - 8x48R
P: the Ladies of Dingwall
C: N Morrison
B: Miss Milligan's Miscellany v.2 #0219
B: Originally Ours v.1 p.182 #MMM-0219
Z: 2019 John Chambers <jc:trillian.mit.edu>
M: 4/4
L: 1/8
R: reel
K: D
%
|:: A |\
"D"d2fa fedf | "Em"geBe "C#/A7"dcBA | "D"d2fa fedf | "A7"gedc "D"d2dA ||\
"D"d2fa fedf | "Em"geBe "C#/A7"dcBA |
"D"dfaf "Em"bged | "A7"ceAc "D"d2dA |]\
"D"FDFA "C#/A7"GEGB | "D"FDFg fdAG | "D"FDFA "Em"GEGg |
"C#/A7"fedc "D"d2dA ||\
"D"FAFA "E/A7"GBGB | "D"FADb fdAG | "D"FA"G"GB "D"Fd"Em"Eg | "D"fa"A"Ac "D"d2d ::|
